skins/stone/images/artwork/refresh.svg

<?xml version="1.0" encoding="UTF-8" standalone="no"?>
<!-- Created with Sodipodi ("http://www.sodipodi.com/") -->
<svg
   xmlns:xml="http://www.w3.org/XML/1998/namespace"
   xmlns:svg="http://www.w3.org/2000/svg"
   xmlns="http://www.w3.org/2000/svg"
   xmlns:sodipodi="http://inkscape.sourceforge.net/DTD/sodipodi-0.dtd"
   xmlns:inkscape="http://www.inkscape.org/namespaces/inkscape"
   inkscape:version="0.41"
   sodipodi:docbase="/mnt/vdrsrc/xxv/devlop/XXV-Skins/stone/images/artwork"
   sodipodi:docname="refresh.svg"
   sodipodi:version="0.32"
   id="svg732"
   xml:space="preserve"
   style="overflow:visible;enable-background:new 0 0 256 256"
   viewBox="0 0 256 256"
   height="48pt"
   width="48pt">
  <defs
     id="defs779" />
  <sodipodi:namedview
     inkscape:current-layer="svg732"
     inkscape:window-y="42"
     inkscape:window-x="10"
     inkscape:window-height="687"
     inkscape:window-width="748"
     inkscape:cy="24.000000"
     inkscape:cx="24.000000"
     inkscape:zoom="7.4791667"
     id="base" />
  <g
     inkscape:export-ydpi="24.000000"
     inkscape:export-xdpi="24.000000"
     inkscape:export-filename="/mnt/vdrsrc/xxv/XXV-0.11/gray/images/refresh.png"
     id="Layer_1">
    <linearGradient
       y2="225.0262"
       x2="197.8929"
       y1="101.1206"
       x1="73.9868"
       gradientUnits="userSpaceOnUse"
       id="XMLID_7_">
      <stop
         id="stop737"
         style="stop-color:#006A00"
         offset="0" />
      <stop
         id="stop738"
         style="stop-color:#003333"
         offset="1" />
    </linearGradient>
    <path
       id="path742"
       d="M105.661,127.22C105.662,127.22,105.662,127.219,105.661,127.22l-9.978,6.887     c-6.869,4.742-13.254,9.359-18.977,13.729c-29.04,22.168-36.41,34.184-38.219,39.371l-0.729,2.096     c-0.232,0.666-0.232,1.402,0,2.07l0.729,2.094c1.807,5.188,9.173,17.203,38.217,39.377c5.696,4.35,12.082,8.969,18.979,13.73     l9.978,6.889c0.967,0.668,2.213,0.744,3.254,0.197c1.04-0.545,1.686-1.615,1.686-2.789c0,0,0-30.197,0-32.166     c2.004,0,44.197,0,44.197,0c44.568,0,80.827-36.262,80.827-80.83v-6.361c0-1.738-1.413-3.15-3.15-3.15h-50.424     c-1.737,0-3.15,1.412-3.15,3.15v6.361c0,13.291-10.812,24.104-24.101,24.104c0,0-37.438-0.002-44.199-0.004     c0-1.969,0-32.164,0-32.164c0-1.174-0.646-2.245-1.687-2.789C107.875,126.475,106.628,126.551,105.661,127.22z"
       style="fill:url(#XMLID_7_);" />
    <linearGradient
       y2="222.1328"
       x2="136.792"
       y1="167.5313"
       x1="136.792"
       gradientUnits="userSpaceOnUse"
       id="XMLID_8_">
      <stop
         id="stop744"
         style="stop-color:#FFFFFF"
         offset="0" />
      <stop
         id="stop745"
         style="stop-color:#DADADA"
         offset="1" />
    </linearGradient>
    <path
       id="path749"
       d="M188.414,137.875c0,18.537-15.079,33.617-33.613,33.617c-0.001,0-0.002,0-0.002,0     c0-0.002,0-0.002,0-0.004c-5.938,0-53.71,0-53.71,0s0-21.33,0-29.553c-6.684,4.613-12.938,9.131-18.61,13.463     c-29.464,22.492-34.301,32.914-35.007,34.939c0.705,2.025,5.534,12.443,35.007,34.945c5.676,4.334,11.93,8.85,18.61,13.463     c0-8.225,0-29.555,0-29.555s47.772,0,53.71,0l0,0c0,0,0.001,0,0.002,0c39.384,0,71.312-31.93,71.312-71.316H188.414z"
       style="fill:url(#XMLID_8_);" />
    <linearGradient
       y2="235.1606"
       x2="137.0664"
       y1="129.8193"
       x1="137.0664"
       gradientUnits="userSpaceOnUse"
       id="XMLID_9_">
      <stop
         id="stop751"
         style="stop-color:#99FF66"
         offset="0" />
      <stop
         id="stop752"
         style="stop-color:#009900"
         offset="1" />
    </linearGradient>
    <path
       id="path756"
       d="M195.98,146.318c-3.945,19.406-21.023,33.615-41.18,33.615l-62.154-0.004     c0,0,0-14.01,0-21.598c-1.759,1.297-3.462,2.568-5.045,3.777c-19.559,14.932-27.438,24.043-30.432,28.23     c2.993,4.188,10.873,13.299,30.432,28.232c1.581,1.207,3.283,2.477,5.045,3.777c0-7.588,0-21.6,0-21.6h62.152     c31.547,0,57.999-23.578,62.165-54.432C211.312,146.318,200.486,146.318,195.98,146.318z"
       style="fill:url(#XMLID_9_);" />
    <linearGradient
       y2="181.4267"
       x2="208.5629"
       y1="40.8809"
       x1="68.0171"
       gradientUnits="userSpaceOnUse"
       id="XMLID_10_">
      <stop
         id="stop758"
         style="stop-color:#006A00"
         offset="0" />
      <stop
         id="stop759"
         style="stop-color:#003333"
         offset="1" />
    </linearGradient>
    <path
       id="path763"
       d="M147.085,2.339C147.085,2.34,147.085,2.34,147.085,2.339     c-1.04,0.546-1.687,1.615-1.687,2.79c0,0,0,30.194,0,32.164c-2.003,0-44.197,0-44.197,0c-44.568,0-80.827,36.259-80.827,80.827     v6.363c0,1.737,1.413,3.15,3.15,3.15l50.425,0.001c0.842,0,1.633-0.328,2.228-0.923c0.595-0.594,0.922-1.385,0.922-2.227v-6.363     c0-6.424,2.511-12.473,7.071-17.033c4.56-4.559,10.608-7.069,17.03-7.069c0,0,37.439,0.002,44.198,0.002     c0,1.969,0,32.165,0,32.165c0,1.174,0.646,2.243,1.687,2.789s2.287,0.471,3.253-0.196l9.979-6.888     c6.857-4.733,13.244-9.353,18.979-13.731c29.043-22.172,36.412-34.186,38.22-39.373l0.729-2.095c0.233-0.668,0.233-1.404,0-2.072     l-0.729-2.094c-1.81-5.189-9.183-17.204-38.219-39.374c-5.711-4.36-12.097-8.979-18.978-13.729l-9.979-6.887     C149.372,1.869,148.125,1.794,147.085,2.339z"
       style="fill:url(#XMLID_10_);" />
    <linearGradient
       y2="121.903"
       x2="119.2085"
       y1="45.606"
       x1="119.2085"
       gradientUnits="userSpaceOnUse"
       id="XMLID_11_">
      <stop
         id="stop765"
         style="stop-color:#FFFFFF"
         offset="0" />
      <stop
         id="stop766"
         style="stop-color:#DADADA"
         offset="1" />
    </linearGradient>
    <path
       id="path770"
       d="M67.585,118.121c0-18.536,15.081-33.616,33.615-33.615c0-0.001,0.001-0.001,0.001-0.001     c0,0.001,0,0.003,0,0.004c5.939,0,53.71,0,53.71,0s0,21.331,0,29.554c6.685-4.615,12.938-9.134,18.611-13.463     c29.463-22.495,34.301-32.913,35.008-34.941c-0.707-2.026-5.536-12.442-35.008-34.945c-5.676-4.332-11.931-8.851-18.61-13.461     c0,8.224,0,29.553,0,29.553s-47.772,0-53.711,0l0,0c0,0,0,0-0.001,0c-39.384,0-71.313,31.929-71.313,71.314L67.585,118.121z"
       style="fill:url(#XMLID_11_);" />
    <linearGradient
       y2="114.0049"
       x2="118.9331"
       y1="41.1826"
       x1="118.9331"
       gradientUnits="userSpaceOnUse"
       id="XMLID_12_">
      <stop
         id="stop772"
         style="stop-color:#99FF66"
         offset="0" />
      <stop
         id="stop773"
         style="stop-color:#009900"
         offset="1" />
    </linearGradient>
    <path
       id="path777"
       d="M163.354,46.805v8.442h-62.153c-31.547,0-58,23.577-62.166,54.43     c5.649,0,16.47,0,20.98,0.001c1.628-8.068,5.541-15.37,11.458-21.287c7.95-7.95,18.506-12.328,29.724-12.328l62.155,0.003     c0,0,0,14.011,0,21.598c1.754-1.294,3.456-2.563,5.047-3.777c19.557-14.93,27.436-24.042,30.431-28.229     c-2.995-4.188-10.878-13.305-30.433-28.236c-1.584-1.209-3.285-2.478-5.044-3.775C163.354,39.878,163.354,46.805,163.354,46.805z     "
       style="fill:url(#XMLID_12_);" />
  </g>
</svg>

<?xml version="1.0" encoding="UTF-8" standalone="no"?>
<!-- Created with Sodipodi ("http://www.sodipodi.com/") -->
<svg
   xmlns:dc="http://purl.org/dc/elements/1.1/"
   xmlns:cc="http://web.resource.org/cc/"
   xmlns:rdf="http://www.w3.org/1999/02/22-rdf-syntax-ns#"
   xmlns:svg="http://www.w3.org/2000/svg"
   xmlns="http://www.w3.org/2000/svg"
   xmlns:sodipodi="http://sodipodi.sourceforge.net/DTD/sodipodi-0.dtd"
   xmlns:inkscape="http://www.inkscape.org/namespaces/inkscape"
   inkscape:version="0.45.1"
   sodipodi:docbase="/mnt/vdrsrc/xxv/svn/xxv/XXV-Skins/trunk/stone/images/artwork"
   sodipodi:docname="refresh.svg"
   sodipodi:version="0.32"
   id="svg732"
   xml:space="preserve"
   style="overflow:visible;enable-background:new 0 0 256 256"
   viewBox="0 0 256 256"
   height="64"
   width="64"
   inkscape:output_extension="org.inkscape.output.svg.inkscape"
   version="1.0"
   inkscape:export-filename="/mnt/vdrsrc/xxv/svn/xxv/XXV-Skins/trunk/stone/images/refresh.png"
   inkscape:export-xdpi="22"
   inkscape:export-ydpi="22"><metadata
   id="metadata30"><rdf:RDF><cc:Work
       rdf:about=""><dc:format>image/svg+xml</dc:format><dc:type
         rdf:resource="http://purl.org/dc/dcmitype/StillImage" /></cc:Work></rdf:RDF></metadata>
  <defs
   id="defs779" />
  <sodipodi:namedview
   inkscape:current-layer="svg732"
   inkscape:window-y="42"
   inkscape:window-x="10"
   inkscape:window-height="687"
   inkscape:window-width="872"
   inkscape:cy="45.392758"
   inkscape:cx="24"
   inkscape:zoom="7.4791667"
   id="base"
   width="64px"
   height="64px" />
  <g
   inkscape:export-ydpi="24.000000"
   inkscape:export-xdpi="24.000000"
   inkscape:export-filename="/mnt/vdrsrc/xxv/XXV-0.11/gray/images/refresh.png"
   id="Layer_1"
   transform="matrix(0.9663137,0,0,0.9522087,4.3123298,6.1172139)">
    <linearGradient
   y2="225.0262"
   x2="197.8929"
   y1="101.1206"
   x1="73.986801"
   gradientUnits="userSpaceOnUse"
   id="XMLID_7_">
      <stop
   id="stop737"
   style="stop-color:#006A00"
   offset="0" />
      <stop
   id="stop738"
   style="stop-color:#003333"
   offset="1" />
    </linearGradient>
    <path
   id="path742"
   d="M 105.661,127.22 C 105.662,127.22 105.662,127.219 105.661,127.22 L 95.683,134.107 C 88.814,138.849 82.429,143.466 76.706,147.836 C 47.666,170.004 40.296,182.02 38.487,187.207 L 37.758,189.303 C 37.526,189.969 37.526,190.705 37.758,191.373 L 38.487,193.467 C 40.294,198.655 47.66,210.67 76.704,232.844 C 82.4,237.194 88.786,241.813 95.683,246.574 L 105.661,253.463 C 106.628,254.131 107.874,254.207 108.915,253.66 C 109.955,253.115 110.601,252.045 110.601,250.871 C 110.601,250.871 110.601,220.674 110.601,218.705 C 112.605,218.705 154.798,218.705 154.798,218.705 C 199.366,218.705 235.625,182.443 235.625,137.875 L 235.625,131.514 C 235.625,129.776 234.212,128.364 232.475,128.364 L 182.051,128.364 C 180.314,128.364 178.901,129.776 178.901,131.514 L 178.901,137.875 C 178.901,151.166 168.089,161.979 154.8,161.979 C 154.8,161.979 117.362,161.977 110.601,161.975 C 110.601,160.006 110.601,129.811 110.601,129.811 C 110.601,128.637 109.955,127.566 108.914,127.022 C 107.875,126.475 106.628,126.551 105.661,127.22 z "
   style="fill:url(#XMLID_7_)" />
    <linearGradient
   y2="222.1328"
   x2="136.79201"
   y1="167.5313"
   x1="136.79201"
   gradientUnits="userSpaceOnUse"
   id="XMLID_8_">
      <stop
   id="stop744"
   style="stop-color:#FFFFFF"
   offset="0" />
      <stop
   id="stop745"
   style="stop-color:#DADADA"
   offset="1" />
    </linearGradient>
    <path
   id="path749"
   d="M 188.414,137.875 C 188.414,156.412 173.335,171.492 154.801,171.492 C 154.8,171.492 154.799,171.492 154.799,171.492 C 154.799,171.49 154.799,171.49 154.799,171.488 C 148.861,171.488 101.089,171.488 101.089,171.488 C 101.089,171.488 101.089,150.158 101.089,141.935 C 94.405,146.548 88.151,151.066 82.479,155.398 C 53.015,177.89 48.178,188.312 47.472,190.337 C 48.177,192.362 53.006,202.78 82.479,225.282 C 88.155,229.616 94.409,234.132 101.089,238.745 C 101.089,230.52 101.089,209.19 101.089,209.19 C 101.089,209.19 148.861,209.19 154.799,209.19 L 154.799,209.19 C 154.799,209.19 154.8,209.19 154.801,209.19 C 194.185,209.19 226.113,177.26 226.113,137.874 L 188.414,137.874 L 188.414,137.875 z "
   style="fill:url(#XMLID_8_)" />
    <linearGradient
   y2="235.1606"
   x2="137.06641"
   y1="129.81931"
   x1="137.06641"
   gradientUnits="userSpaceOnUse"
   id="XMLID_9_">
      <stop
   id="stop751"
   style="stop-color:#99FF66"
   offset="0" />
      <stop
   id="stop752"
   style="stop-color:#009900"
   offset="1" />
    </linearGradient>
    <path
   id="path756"
   d="M 195.98,146.318 C 192.035,165.724 174.957,179.933 154.8,179.933 L 92.646,179.929 C 92.646,179.929 92.646,165.919 92.646,158.331 C 90.887,159.628 89.184,160.899 87.601,162.108 C 68.042,177.04 60.163,186.151 57.169,190.338 C 60.162,194.526 68.042,203.637 87.601,218.57 C 89.182,219.777 90.884,221.047 92.646,222.347 C 92.646,214.759 92.646,200.747 92.646,200.747 L 154.798,200.747 C 186.345,200.747 212.797,177.169 216.963,146.315 C 211.312,146.318 200.486,146.318 195.98,146.318 z "
   style="fill:url(#XMLID_9_)" />
    <linearGradient
   y2="181.4267"
   x2="208.5629"
   y1="40.880901"
   x1="68.017097"
   gradientUnits="userSpaceOnUse"
   id="XMLID_10_">
      <stop
   id="stop758"
   style="stop-color:#006A00"
   offset="0" />
      <stop
   id="stop759"
   style="stop-color:#003333"
   offset="1" />
    </linearGradient>
    <path
   id="path763"
   d="M 147.085,2.339 C 147.085,2.34 147.085,2.34 147.085,2.339 C 146.045,2.885 145.398,3.954 145.398,5.129 C 145.398,5.129 145.398,35.323 145.398,37.293 C 143.395,37.293 101.201,37.293 101.201,37.293 C 56.633,37.293 20.374,73.552 20.374,118.12 L 20.374,124.483 C 20.374,126.22 21.787,127.633 23.524,127.633 L 73.949,127.634 C 74.791,127.634 75.582,127.306 76.177,126.711 C 76.772,126.117 77.099,125.326 77.099,124.484 L 77.099,118.121 C 77.099,111.697 79.61,105.648 84.17,101.088 C 88.73,96.529 94.778,94.019 101.2,94.019 C 101.2,94.019 138.639,94.021 145.398,94.021 C 145.398,95.99 145.398,126.186 145.398,126.186 C 145.398,127.36 146.044,128.429 147.085,128.975 C 148.126,129.521 149.372,129.446 150.338,128.779 L 160.317,121.891 C 167.174,117.158 173.561,112.538 179.296,108.16 C 208.339,85.988 215.708,73.974 217.516,68.787 L 218.245,66.692 C 218.478,66.024 218.478,65.288 218.245,64.62 L 217.516,62.526 C 215.706,57.337 208.333,45.322 179.297,23.152 C 173.586,18.792 167.2,14.173 160.319,9.423 L 150.34,2.536 C 149.372,1.869 148.125,1.794 147.085,2.339 z "
   style="fill:url(#XMLID_10_)" />
    <linearGradient
   y2="121.903"
   x2="119.2085"
   y1="45.605999"
   x1="119.2085"
   gradientUnits="userSpaceOnUse"
   id="XMLID_11_">
      <stop
   id="stop765"
   style="stop-color:#FFFFFF"
   offset="0" />
      <stop
   id="stop766"
   style="stop-color:#DADADA"
   offset="1" />
    </linearGradient>
    <path
   id="path770"
   d="M 67.585,118.121 C 67.585,99.585 82.666,84.505 101.2,84.506 C 101.2,84.505 101.201,84.505 101.201,84.505 C 101.201,84.506 101.201,84.508 101.201,84.509 C 107.14,84.509 154.911,84.509 154.911,84.509 C 154.911,84.509 154.911,105.84 154.911,114.063 C 161.596,109.448 167.849,104.929 173.522,100.6 C 202.985,78.105 207.823,67.687 208.53,65.659 C 207.823,63.633 202.994,53.217 173.522,30.714 C 167.846,26.382 161.591,21.863 154.912,17.253 C 154.912,25.477 154.912,46.806 154.912,46.806 C 154.912,46.806 107.14,46.806 101.201,46.806 L 101.201,46.806 C 101.201,46.806 101.201,46.806 101.2,46.806 C 61.816,46.806 29.887,78.735 29.887,118.12 L 67.585,118.121 z "
   style="fill:url(#XMLID_11_)" />
    <linearGradient
   y2="114.0049"
   x2="118.9331"
   y1="41.182598"
   x1="118.9331"
   gradientUnits="userSpaceOnUse"
   id="XMLID_12_">
      <stop
   id="stop772"
   style="stop-color:#99FF66"
   offset="0" />
      <stop
   id="stop773"
   style="stop-color:#009900"
   offset="1" />
    </linearGradient>
    <path
   id="path777"
   d="M 163.354,46.805 L 163.354,55.247 L 101.201,55.247 C 69.654,55.247 43.201,78.824 39.035,109.677 C 44.684,109.677 55.505,109.677 60.015,109.678 C 61.643,101.61 65.556,94.308 71.473,88.391 C 79.423,80.441 89.979,76.063 101.197,76.063 L 163.352,76.066 C 163.352,76.066 163.352,90.077 163.352,97.664 C 165.106,96.37 166.808,95.101 168.399,93.887 C 187.956,78.957 195.835,69.845 198.83,65.658 C 195.835,61.47 187.952,52.353 168.397,37.422 C 166.813,36.213 165.112,34.944 163.353,33.647 C 163.354,39.878 163.354,46.805 163.354,46.805 z "
   style="fill:url(#XMLID_12_)" />
  </g>
</svg>
